X:1
T:Étude
T:Étude
T:Op. 8 No. 12 in D♯ minor
T:Alexander Scriabin
C:Alexander Scriabin
%%score { ( 1 3 ) | ( 2 4 ) }
L:1/8
Q:1/4=100
M:4/4
K:F#
V:1 treble nm="鋼琴" snm="Pno."
V:3 treble 
V:2 bass 
V:4 bass 
V:1
"^Patetico""^-112" z/ |[Q:1/4=88] z4 z3/2 [Aa]/ [A,A]>[Ee][Q:1/4=92][Q:1/4=100][Q:1/4=108] | %2
 [Ee]4 (3[Dd][^^C^^c][Dd]!<(! [Ee]/[Ff]/[Aa]/!<)!!f!z/4[^c^c']/4 | %3
 [cc']2 [Bb]2 z3/2 [Bb]/ [B,B]>[Ff] | [Ff]4 (3[=E=e][Dd][Ee] [Ff]/[Gg]/[Bb]/z/4[dd']/4 | %5
!>(! [dd']2!>)!!mf! [^^c^^c']2"_cresc." z3/2 [dd']/ [Dd]>[Aa] | %6
 [Aa]4 (3[Gg][^^F^^f][Gg]!<(! [Aa]/[Bb]/[dd']/!<)!z/4[^f^f']/4 |!f! [ff']2 [ee']4 [=e=e']2 | %8
 [dd']2 [cc'][Bb] [Aa][Gg]- (3:2:2[Gg]2 [Ff] | [Ff]2 [Ee]2 z3/2 [Aa]/ [A,A]z/[Ee]/ | %10
!f! [Ee]4 (3[Dd][^^C^^c][Dd]!<(! [Ee]/[Ff]/[Aa]/!<)!!f!z/4[^c^c']/4 | %11
 [cc']2 [Bb]2 z3/2 [Bb]/ [B,B]>[Ff] | %12
 [Ff]4!f! (3[=E=e][Dd][Ee]!<(! [Ff]/[Gg]/[Bb]/z/4!<)!!f![dd']/4 | %13
 [dd']2 [^^c^^c']2 z3/2 [dd']/ [Dd]>[Aa] | %14
 [Aa]4!f! (3[Gg][^^F^^f][Gg]!<(! [Aa]/[Bb]/[dd']/!<)!z/4!f![^f^f']/4 |!ff! [ff']2 [ee']4 [=e=e']2 | %16
"_dim." [dd']2 [cc'][Bb] [Aa][Gg]- (3:2:2[Gg]2 [Aa] | %17
!mf!!>(! [Gg]2!>)!!mp!"_dim." [Ff]2!p! (3z z [cc'] (3[Gg][Ff][Gg] | %18
 (3[Cc][Dd][=E=e] [Gg]2- (3[Gg][Ff][Gg]!<(! [=A=a]/[cc']/[=e=e']/z/4!<)![gg']/4 | %19
 [gg']2 [ff']2- (3[ff'][=e=e'][cc'] (3[=A=a][Gg][Aa] | %20
 (3[Ff][Gg][=A=a] [ff']4 (3:2:2[=e=e']2 [ff'] | %21
!mf! [=e=e']2!>(! (3:2:2[dd']2 [cc'] (3[Bb][=A=a][Gg] (3[Ff][=E=e][Ff]!>)! | %22
!p! (3[B,B][Cc][=D=d] [Ff]2- (3[Ff][=E=e][Ff]!<(! [=G=g]/[Bb]/[d=d']/z/4!<)![ff']/4 | %23
 [ff']2 [=e=e']2- (3[ee'][=d=d'][Bb] (3[=G=g][^F^f][Gg] | %24
 (3[Ee][Ff][=G=g]"_cresc." [=e=e']4 (3:2:2[=d=d']2 [ee'] | %25
 [=d=d']2 (3:2:2[cc']2 [Bb] (3[=A=a][=G=g][Ff] (3[=E=e][=Dd][Ee] | %26
 (3[=A,=A][Cc][=D=d] [Ad=a]2-!f!!<(! [Ada]!>![Acfa]- (3[Acfa]z!>![Acfa]!<)! | %27
!>(! [=A^Bf=a]2!>)!!mf! [GBfg]2 (3z z [Gg]"_cresc." (3[Dd][Cc][Dd] | %28
!f! (3[G,G][^B,^B][Cc]!<(! [Gcg]2- [Gcg]!>![=G=B=e=g]- (3:2:2[GBeg]2 !>![GBeg]!<)! | %29
!>(! [=GA=e=g]2!>)!!mf!!<(! [FAef]2 (3z z [Ff] (3[Cc][B,B][Cc]!<)! | %30
!ff! (3[F,F][A,A][B,B] [FBf]4[Q:1/4=100]!>(! (3:2:2[^E^^G^e]2[Q:1/4=84] [DGd]!>)![Q:1/4=92] | %31
!mf![Q:1/4=92] (3[A,DA][^^C^^c][Dd][Q:1/4=100] [Ada]2[Q:1/4=108] (3[A,DA][^^C^^c][Dd] [Bdb]2 | %32
 (3[B,B][Dd][Ee] (3:2:2[Bdb]2 !>![Ada] (3:2:2!>![Aa]2 [Gdg] [Gg]2 | %33
[Q:1/4=104]"_cresc." (3[A,A][Cc][^^C^^c][Q:1/4=100] [Aa]2[Q:1/4=96] z3/2 [Aa]/[Q:1/4=88] [A,A]>[Ee][Q:1/4=72][Q:1/4=50] | %34
!ff![Q:1/4=54] [Ee]4[Q:1/4=62][Q:1/4=78][Q:1/4=94][Q:1/4=108] (3[DAd][^^CA^^c][DAd]!<(! [Ee]/[Ff]/[Aa]/!<)!!f!z/4[^c^c']/4 | %35
 [cc']2 [Bb]2 x3/2 [Bb]/ [B,B]>[Ff] | %36
 [Ff]4 (3[=EB=e][DBd][EBe]!<(! [Ff]/[Gg]/[Bb]/!<)!!f!z/4[dd']/4 | %37
 [dd']2 [^^c^^c']2 (3x x [dd'] (3:2:2[Dd]2 [Aa] | %38
 [Aa]4 (3[Gdg][^^Fd^^f][Gdg] [Aa]/[Bb]/[dd']/z/4[^f^f']/4 | [ff']2 [ee']4 [=e=e']2 | %40
 [dd']2 [cc'][Bb] (3:2:2[Aa]2 [Gg]- (3:2:2[Gg]2 [Ff] | [Ff]4 [Ee]2 (3z z [Aa] | %42
 [Aa]4 [Gg]2 (3x x [cc'] | [cc']4[Q:1/4=100] [Bb]2[Q:1/4=92] (3z[Q:1/4=84] z [ff'] | %44
[Q:1/4=92] [ff']2[Q:1/4=100] [ee']4[Q:1/4=108][Q:1/4=116] [=e=e']2- | %45
[Q:1/4=124] [ee']2 [dd']4 [^^c^^c']2- | [cc']2 [dd']4 [^c^c']2- | [cc']2 [Bb]4 [Bb]2- | %48
[Q:1/4=116] [Bb]2[Q:1/4=108] [Aa]2 [Bb]2 [Ff]2 | %49
[Q:1/4=116]!<(! [Gg]4[Q:1/4=124][Q:1/4=116] z3/2!<)!!fff![Q:1/4=108] [Aa]/ [A,A]>[Ee] | %50
 [Ee]4 [Dd] z/ A/ A,>E | %51
[Q:1/4=100] E4[Q:1/4=92][Q:1/4=100] D[K:bass] z/[Q:1/4=104] A,/ A,,>E,!fff! | %52
[Q:1/4=108] (3E,D,E,[Q:1/4=112] (3E,D,B,[Q:1/4=116] (3B,A,[K:treble]E[Q:1/4=120] (3EDB | %53
[Q:1/4=124] (3BAe[Q:1/4=128] (3ed!8va(!b (3bae' (3e'd'!>!a' | %54
!fff! !>![d'a'd'']2!8va)! z2[Q:1/4=52] !>![F,DA]4 | !>![F,A,DF]8 |] %56
V:2
!ped! [D,,D,]/ | (3[D,,D,]A,A,, (3F,DA,, (3[D,,D,]A,A,, (3F,DA,,!ped-up! | %2
!ped! (3[D,,D,]A,A,, (3F,AA,, (3[D,,D,]A,A,, (3F,DD,!ped-up! | %3
!ped! (3[D,,D,]B,B,, (3F,FB,, (3[D,,D,]B,B,, (3F,DB,,!ped-up! | %4
!ped! (3[D,,G,]B,B,, (3G,BB,, (3[D,,G,]B,B,, (3G,=EB,,!ped-up! | %5
!ped! (3[D,,G,]B,E, (3G,GB,, (3[D,,G,]B,D, (3G,GB,,!ped-up! | %6
!ped! (3[D,,G,]DD, (3B,dB,, (3[D,,G,]DD, (3B,GB,,!ped-up! | %7
!ped! (3[D,,D,]B,^^C, (3G,EB,, (3[D,,D,]B,C, (3G,=E[D,,D,]!ped-up! | %8
!ped! (3G,,B,D, (3G,DG,,!ped-up!!ped! (3E,,B,D, (3G,DE,,!ped-up! | %9
!ped! (3A,,A,A,, (3G,^^CE,!ped-up!!ped! (3A,,A,A,, (3G,CA,,!ped-up! | %10
!ped! (3D,,A,A,, (3F,AA,, (3[D,,F,]A,A,, (3F,DD,!ped-up! | %11
!ped! (3D,,B,B,, (3F,[B,F]B,, (3[D,,F,]B,B,, (3F,DB,!ped-up! | %12
!ped! (3D,,B,B,, (3G,BB,, (3[D,,G,]B,B,, (3G,=EB,!ped-up! | %13
!ped! (3D,,B,E, (3G,[^^CG]B,, (3[D,,G,]B,D, (3G,[B,G]B,!ped-up! | %14
!ped! (3D,,DD, (3B,dB,, (3[D,,G,]DD, (3B,GG,!ped-up! | %15
!ped! (3D,B,^^C, (3G,[B,E]G,!ped-up!!ped! (3D,B,^^C, (3G,[B,=E]D,!ped-up! | %16
!ped! (3G,,DD, (3G,DG,,!ped-up!!ped! (3C,CC, (3B,EC,!ped-up! | %17
!ped! (3F,,CC, (3A,FC, (3[F,,F,]=A,C, (3F,CC,!ped-up! | %18
!ped! (3[F,,F,]CC, (3=A,=EC, (3[F,,F,]CC, (3F,[A,E]F,!ped-up! | %19
!ped! (3C,=A,C, (3F,[A,=E]C, (3C,,A,C, (3F,[A,E]F,!ped-up! | %20
!ped! (3C,=A,C, (3F,[=A,=E]F,!ped-up!!ped!"^cresc." (3=C,A,C, (3F,[A,E]F,!ped-up! | %21
!ped! (3B,,=A,B,, (3F,[A,D]B,, (3B,,,A,B,, (3F,[A,=C]B,,!ped-up! | %22
!ped! (3[=E,,=E,]=G,B,, (3E,[G,=D]B,, (3[E,,E,]G,B,, (3E,[G,D]E,!ped-up! | %23
!ped! (3B,,=G,B,, (3=E,[G,=D]B,, (3B,,,G,B,, (3E,[G,D]E,!ped-up! | %24
!ped! (3B,,=G,B,, (3=E,[G,=D]E,!ped-up!!ped! (3_B,,G,B,, (3E,[G,D]E,!ped-up! | %25
!ped! (3=A,,=G,A,, (3=E,[=G,C][=E,,E,] (3[=A,,,A,,]G,A,, (3E,[G,_B,]A,,!ped-up! | %26
!ped! (3=D,=A,=A,, (3F,=DA,,!ped-up!!ped! (3=D,,A,A,, (3F,CD,,!ped-up! | %27
!ped! (3G,,F,G,, (3D,^B,D,!ped-up!!ped! (3G,,F,G,, (3D,=A,G,,!ped-up! | %28
!ped! (3C,G,G,, (3=E,CG,,!ped-up!!ped! (3C,,E,=G,, (3E,B,C,,!ped-up! | %29
!ped! (3F,,=E,F,, (3C,A,C,!ped-up!!ped! (3F,,E,F,, (3C,F,F,,!ped-up! | %30
!ped! (3B,,,F,F,, (3D,B,F,!ped-up!!ped! (3B,,F,F,, (3D,^^G,F,!ped-up! | %31
!ped! (3A,,A,A,, (3F,DF,!ped-up!!ped! (3A,,A,A,, (3F,DF,!ped-up! | %32
!ped! (3!>![A,,,A,,]!>!B,!>!E, (3!>!G,D[K:treble]!>![B,DB] (3!>![B,DB][B,DB][B,DB] (3[B,DB][B,DB][K:bass]E,!ped-up! | %33
!ped! (3A,,A,E, (3G,^^C[G,CA] (3[G,CA]"^rit.\n"[G,C][G,C] (3[G,C][G,C]A,,!ped-up! | %34
!ped! (3D,,[A,,F,A,][A,,F,A,] (3[A,,F,A,][A,,F,A,][A,,F,A,] (3[F,A,F][A,,F,A,][A,,F,A,] (3[D,A,D][DF]D,!ped-up! | %35
!ped! (3D,,[F,B,F][F,B,F] (3[F,B,F][B,,F,B,][B,,F,B,] (3[B,,F,B,][B,,F,B,][B,,F,B,] (3[F,D][F,F]B,!ped-up! | %36
!ped! (3!>!D,,,[B,,G,B,][B,,G,B,] (3[B,,G,B,][B,,G,B,][B,,G,B,] (3[G,B,G][B,,G,B,][B,,G,B,] (3[=E,B,=E][G,EG]B,!ped-up! | %37
!ped! (3!>!D,,,[B,,E,G,B,][B,,E,G,B,] (3[E,G,B,E][E,G,B,E][E,G,B,E] (3[E,G,B,E][E,G,B,E][D,G,B,D] (3[G,B,G][G,B,G]!>![D,B,]!ped-up! | %38
!ped! (3D,[D,B,D][D,B,D] (3[D,B,D][D,B,D][D,B,D] (3[B,DB][D,B,D][D,B,D] (3[G,DG][B,GB]G,!ped-up! | %39
!ped! (3!>!D,,!>![^^C,G,B,]!>![C,G,B,] (3!>![G,B,E]!>![G,B,E]!>![G,,G,] (3!>!D,,!>![C,G,B,]!>![C,G,B,] (3!>![G,B,=E]!>![G,B,E]D,!ped-up! | %40
!ped! (3G,,[D,G,D][D,G,D] (3[D,G,D][D,G,D][D,G,D][K:treble] (3[B,DB][B,DB][B,DB][K:bass] (3[D,B,D][D,B,D]G,,!ped-up! | %41
!ped! (3D,,[B,,F,B,][B,,F,B,] (3[B,,F,B,][B,,F,B,][B,,F,B,] (3[B,,E,B,][G,,G,][G,,G,] (3[G,,G,][G,,G,]G,,!ped-up! | %42
!ped! (3!>!D,,,[B,,F,B,][B,,F,B,] (3[B,,F,B,][B,,F,B,][B,,F,B,] (3[B,,E,B,][G,,G,][G,,G,] (3[G,,G,][G,,G,]G,,!ped-up! | %43
!ped! (3D,,[D,G,D][D,G,D] (3[D,G,D][D,G,D][D,G,D] (3[G,DG][B,,B,][B,,B,] (3[B,,B,][B,,B,]B,!ped-up! | %44
!ped! !>![^^C,,,^^C,,][B,,B,] [E,B,E][B,,B,]!ped-up!!ped! !>![D,,,D,,][B,,B,] [=E,B,=E][B,,B,]!ped-up! | %45
!ped! !>![=E,,,=E,,][B,,B,] [D,G,B,D][B,,B,]!ped-up!!ped! !>![^E,,,^E,,][B,,B,] [^^C,G,B,^^C]2!ped-up! | %46
!ped! !>![F,,,F,,][^^C,G,B,^^C] [D,F,B,D][D,,D,]!ped-up!!ped! !>![^^F,,,^^F,,][D,^F,B,D] [=E,A,C=E][=E,,E,]!ped-up! | %47
!ped! !>![G,,,G,,][=E,A,C=E] [E,G,B,E][=E,,E,]!ped-up!!ped! !>![^^G,,,^^G,,][E,G,B,E] [D,F,B,D]!>![G,,,G,,]!ped-up! | %48
!ped! !>![A,,,A,,][F,B,DF]!ped-up!!ped! (3[F,A,DF][F,A,DF][F,A,DF]!ped-up!!ped! (3[F,^^G,B,DF][F,G,B,DF][F,G,B,DF]!ped-up!!ped! (3[F,G,B,DF][F,G,B,DF][F,G,B,DF]!ped-up! | %49
!ped! (3[F,G,DF][F,G,DF][F,G,DF] (3[F,G,DF][F,G,DF][F,G,DF]!ped-up!!ped! (3[E,G,^^CE][G,CE][G,CE] (3[G,C][G,C]!>![A,,,A,,]!ped-up! | %50
!ped! (3!>![D,,,D,,][A,,F,A,][A,,F,A,] (3[A,,F,A,][A,,F,A,][A,,F,A,] (3[F,A,F][A,,A,][A,,A,] (3[A,,A,][A,,A,][A,,A,]!ped-up! | %51
!ped! (3!>![D,,,D,,][A,,A,][A,,A,] (3[A,,A,][A,,A,][A,,A,] (3[A,,A,][A,,,A,,][A,,,A,,] (3[A,,,A,,][A,,,A,,][A,,,A,,]!ped-up! | %52
!ped! (3A,,,[D,,,D,,]A,,, (3A,,,[D,,,D,,]D,, (3D,,[A,,,A,,]A,, (3A,,[D,,D,]D, | %53
 (3D,[A,,A,]A, (3A,[D,D][K:treble]D (3D[A,A]A (3A[Dd]!>![Ada]!ped-up! | %54
!ped! !>![Ada]2 z2!ped-up![K:bass]!ped! !>![D,,,D,,A,,]4!ped-up! |!ped! !>![D,,A,,D,]8!ped-up! |] %56
V:3
 x/ | x8 | A4 A2 Ad/ z/ | f4 z2 z2 | B4 B2 B=e/ z/ | g4 z2 z2 | d4 d2 dg/ z/ | b2 b4 [gb]2 | %8
 [gb]2 [dg]2 d2 (3:2:2d2 [Bd] | [A^^c]4 x4 | A4 A2 Ad/ z/ | f4 x4 | B4 B2 B=e/ z/ | g4 x4 | %14
 d4 d2 dg/ x/ | b2 b4 b2 | [gb]2 [dg]2 [c^e]2 [ce]2 | c4 x4 | x8 | x8 | x8 | x8 | x8 | x8 | x8 | %25
 x8 | x8 | x8 | x8 | x8 | x8 | x8 | x4 (3[Ad][Ad][Gd] (3[Gd][Gd][Gd] | x8 | %34
 (3z [EA][EA] (3[EA][EA][EA] x2 Ad/ z/ | (3z [cf][cf] (3[Bf][Bf][Bf] [Bf]2 x2 | %36
 (3z [FB][FB] (3[FB][FB][FB] x2 B=e/ z/ | %37
 (3z [dg][dg] (3[^^cg][cg][cg] (3[cg][cg][dg] (3[DB][DB]d | (3z [Ad][Ad] (3[Ad][Ad][Ad] x2 dg/ z/ | %39
 (3z !>![fb]!>![fb] (3[eb]!>![eb]!>![eb] (3!>![eb]!>![eb]!>![eb] (3[=eb]!>![eb]!>![eb] | %40
 (3[dgb][dgb][dgb] (3[dg][dg][dg] (3d[Ad][Gd] (3[Gd][Gd][Bd] | %41
 (3z [FBd][FBd] (3[FBd][FBd][FBd] (3[EBd][EBd][EBd] (3[EBd][EBd][df] | %42
 (3z [Adf][Adf] (3[Adf][Adf][Adf] (3[Gde][Gde][Gde] (3[Gde][Gde][dg] | %43
 (3z [cdg][cdg] (3[cdg][cdg][cdg] (3[Bdg][Bdg][Bdg] (3[Bdg][Bdg]b | %44
 (3[fb][fb][fb] (3[eb][eb][eb] (3[eb][eb][eb] (3[=eb][eb][eb] | %45
 (3[=e=b][eb][eb] (3[dgb][dgb][dgb] (3[dgb][dgb][dgb] (3[^^cgb][cgb][cgb] | %46
 (3[^^cgb][cgb][cgb] (3[db][db][db] (3[db][db][db] (3[^ca][ca][ca] | %47
 (3[ca][ca][c=ea] (3[Beg][Beg][Beg] (3[Beg][Beg][Beg] (3[Bdf][Bdf][Bdf] | %48
 (3[Bdf][Bdf][Bdf] (3[Adf][Adf][Adf] (3[Bd][Bd][Bd] (3[Bd][Bd][Bd] | %49
 (3[Bd][Bd][Bd] (3[Bd][Bd][Bd] [A^^c] x3 | (3z [EA][EA] (3[EA][EA][EA] [DA]2 z2 | %51
 (3z F,F, (3F,F,F, F,2[K:bass] z2 | %52
 (3:2:2[A,,A,]2 [A,,A,] (3:2:2[A,,A,]2 [D,D] (3:2:2[D,D]2[K:treble] [A,A] (3:2:2[A,A]2 [Dd] | %53
 (3:2:2[Dd]2 [Aa] (3:2:2[Aa]2!8va(! [dd'] (3:2:2[dd']2 [aa'] (3:2:2[aa']2 !>![d'd''] | %54
 x2!8va)! x6 | x8 |] %56
V:4
 x/ | x8 | x8 | x8 | x8 | x8 | x8 | x8 | %8
 !>![G,,,G,,]2 (3x x !>![G,,,G,,] !>![E,,,E,,]2 (3x x !>![E,,,E,,] | %9
 !>![A,,,A,,]2 (3x x !>![E,,E,] !>![A,,,A,,]2 (3x x !>![A,,,A,,] | %10
 !>![D,,,D,,] x5 (3x x !>![D,,D,] | !>![D,,,D,,] x5 (3x x !>![B,,B,] | %12
 !>![D,,,D,,] x5 (3x x !>![B,,B,] | !>![D,,,D,,] x5 (3x x !>![B,,B,] | %14
 !>![D,,,D,,] x5 (3x x !>![G,,G,] | !>![D,,D,] x (3x x !>![G,,G,] !>![D,,D,] x (3x x !>![D,,D,] | %16
 !>![G,,,G,,] x (3x x !>![G,,,G,,] !>![C,,C,] x (3x x !>![C,,C,] | !>![F,,,F,,] x7 | %18
 x6 (3x x !>![F,,F,] | !>![C,,C,] x5 (3x x !>![F,,F,] | %20
 !>![C,,C,] x (3x x !>![F,,F,] !>![=C,,=C,]2 (3x x !>![F,,F,] | !>![B,,,B,,]2 x2 !>!B,,,2 x2 | %22
 x6 (3x x !>![=E,,=E,] | !>![B,,,B,,]2 x4 (3x x !>![=E,,=E,] | %24
 !>![B,,,B,,]2 (3x x !>![=E,,=E,] !>![_B,,,_B,,]2 (3x x !>![E,,E,] | !>![=A,,,=A,,]2 x6 | %26
 !>![=D,,=D,] x (3x x !>![=A,,,=A,,] !>![=D,,,D,,] x (3x x !>![D,,,D,,] | %27
 !>![G,,,G,,]2 (3x x !>![D,,D,] !>![G,,,G,,]2 x2 | %28
 !>![C,,C,]2 (3x x !>![G,,,G,,] !>![C,,,C,,]2 (3x x !>![C,,,C,,] | %29
 !>![F,,,F,,]2 (3x x !>![C,,C,] !>![F,,,F,,]2 (3x x !>![F,,,F,,] | %30
 !>![B,,,,B,,,]2 (3x x !>![F,,F,] !>![B,,,B,,]2 (3x x !>![F,,F,] | %31
 !>![A,,,A,,]2 (3x x !>![F,,F,] !>![A,,,A,,]2 (3x x !>![F,,F,] | %32
 x10/3[K:treble] x8/3 (3x x[K:bass] !>![E,,E,] | !>![A,,,A,,]2 x4 (3x x !>![A,,,A,,] | %34
 !>![D,,,D,,]2 x4 (3x x !>![D,,D,] | !>![D,,,D,,]2 x4 (3x x !>![B,,B,] | %36
 !>!D,,2 x4 (3x x !>![B,,B,] | !>!D,,2 x4 (3x x !>!D | !>![D,,D,]2 x4 (3x x !>![G,,G,] | %39
 !>!D,2 (3x x !>!G,, !>!D,2 (3x x !>![D,,D,] | %40
 !>![G,,,G,,]2 x2[K:treble] x2[K:bass] (3x x !>![G,,,G,,] | !>![D,,,D,,]2 x4 (3x x !>![G,,,G,,] | %42
 !>!D,,2 x4 (3x x !>![G,,,G,,] | !>![D,,,D,,]2 x4 (3x x !>![B,,B,] | x8 | x8 | x8 | x8 | x8 | x8 | %50
 x8 | x8 | x8 | x10/3[K:treble] x14/3 | x4[K:bass] x4 | x8 |] %56

